X:1
T:Madonna, preg'il ciel
T:Madonna, preg'il ciel
T:Jhan Gero
T:Source : Trium vocum cantiones---Nürnberg---J.Petreius--1541. Editor : André Vierendeels (09/04/16).
T:Notes : Original clefs :C2, C2, F3 Editorial accidentals above the staff Note values have been halved 
T:©
T:©
T:©
T:©
C:Jhan Gero
Z:©
%%score [ 1 2 3 ]
L:1/8
Q:1/4=75
M:2/2
K:C
V:1 treble nm="Alto 1" snm="A 1"
V:2 treble nm="Alto 2" snm="A 2"
V:3 treble-8 nm="Tenor" snm="T"
V:1
 G4 F2 E2 | D2 C2 G2 F2 | E2 D2 E4- | E2 D2 C4 | B,2 B,2 C2 B,2 | A,4 G,2 G,2 | A,2 C2 C2 B,2 | %7
w: Ma- don- na,|pre- g'il ciel che|mi con- fun-|* * da,|che mi con- fun-|* da, s'io|non vi- di'e il|
 C2 B,2 A,4 | G,2 G,2 A,2 C2 | C2 B,2 C3 B, | A,4 G,2 G,2 | A,2 B,4 C2 | D2 E4 DC | D2 C3 B, E2- | %14
w: ve- * *|ro, s'io non vi-|di'e il ve- *|* ro, poi|che me vi-|di pri _ _|_ _ _ _|
 E2 D2 E4 | F4 E4 | z2 D2 E2 F2 | G4 C4 | z2 D2 E3 F | G4 C2 A2- | A2 A2 A2 G2 | F4 E4 | z4 E4 | %23
w: |* vo,|di vo- stra|lu- ce,|di vo- stra|lu- ce, qual|_ mi te- ne'a|vi- vo,|so-|
 D2 F2 E3 D | B,C D4 C2 | B,2 G2 G2 F2 | E4 D4- | D2 D2 G3 F | E2 C2 F3 E | D2 D2 E2 C2- | %30
w: gnan- do- mi, _|_ _ la nott'|ha- ver- v'in brac-|ci- o,|_ de la ca-|mi- sci'un ciam- bo-|let- to fac- *|
 C2 B,2 C4 | z2 G2 c3 B |"^b" A2 F2 B3 A | G2 A2 F4 | E8 |] %35
w: * * cio|de la ca-|mi- sci'un ciam- bo-|let- to fac-|cio.|
V:2
 z4 z2 G2 | F2 E2 D2 C2 | B,2 A,2 G,2 G2- | G2 F2 E4 | D2 D2 E2 G2 | G2 F2 G4 | E4 z2 D2 | %7
w: Ma-|don- na, pre- g'il|ciel mi con- fun-|* * da,|s'io non vi- di|e il ve-|ro, s'io|
 E2 G2 G2 F2 | G4 E4 | z2 D2 E2 G2 | G2 F2 G2 G2 | z2 D2 E4 | F2 G4 A2 | F4 E4 | z2 A,2 B,2 C2 | %15
w: non vi- di'e il|ve- ro,|s'io non vi-|di'e il ve- ro,|poi che|me vi- di|pri- vo|di vo- stra|
 D4 G,2 C2- | C2 B,2 A,4 | G,2 G,4 A,2- | A,2 B,2 C4 | G,4 A,4 | A,2 C3 B, E2- | E2 D2 E4- | E8 | %23
w: lu- ce di|_ vo- stra|lu- ce, lu-|* * ce,|qual mi|te- ne' a vi-|* * vo,|_|
 z4 E4 | D2 F2 E2 E2 | G3 F E2 D2 | C4 B,4- | B,4 z2 G2 | c3 B A2 F2 |"^b" B3 A G2 A2 | F4 E2 E2 | %31
w: so-|gnan- do- mi la|nott' ha- ver- v'in|brac- chio,|_ de|la ca- mi- sci'un-|ciam- bo- let- to|fac- cio, de|
 G3 F E2 C2 | F3 E D2 D2 | E2 C4 B,2 | C8 |] %35
w: la ca- mi- sci'un|ciam- bo- let- to|fac- * *|cio.|
V:3
 z8 | z2 c2 B2 A2 | G2 F2 E3 D | C2 D2 E2 F2 | G4 z2 G2 | A2 c2 c2 B2 | cBAG F2 G2 | C2 G2 A2 c2 | %8
w: |Ma- don- na,|pre- g'il ciel _|_ mi con- fun-|da, s'io|non vi- di'e il|ve- * * * * *|ro, s'io non vi-|
 c2 B2 cBAG | F2 G2 C4 | z2 D2 E4 | F2 G4 A2 | F2 E4 F2 | DEFG A3 G | F4 E4 | z2 D2 E3 F | %16
w: di'e il ve- * * *|* * ro,|poi che|me vi- di|pri- * vo,|pri- * * * * *|* vo,|di vo- stra|
 G4 C2 D2 | E6 F2 | D4 C3 D | E4 F4- | F2 F2 F2 G2 | A2 B2 c4 | A6 G2 | _B2 A3 GEF | G2 F2 A4 | %25
w: lu- ce, di|vo- stra|lu- * *|ce, qual|_ mi te- ne'a|vi- * vo,|so- gnan-|do- mi _ _ _|_ la nott'|
 E4 C2 D2 | E2 F2 G4- | G4 G2 c2- |"^b" cB A2 F2 B2 |"^b" BA G2 E2 F2 | D4 C4 | G2 c3 B A2 | %32
w: ha- ver- v'in|brac- * chio,|_ de la|_ ca- mi- sci'un ciam-|bo- * let- * to|fac- cio,|de la ca- mi-|
"^b" F2 B3 A G2 | E2 F2 D4 | C8 |] %35
w: sci'un ciam- bo- let-|to fac- *|cio.|

